X:8
T:Robin0
R:Scottish
D:Yogan "La mare au galop"
Z:<anamnese@laposte.net> -- http://anamnese.fr.st
M:4/4
L:1/8
Q:1/4=200
K:G
E4 BA FA | E4 AD FA | E4 cA BG | AG FG Ac BA :|
EB GB E2 EG | FE/D/ AF DE FD |
EB GB E2 EG | FE/D/ AF GE E2 |
EB GB E2 EG | FE/D/ DF AD FA | 
EB, B,2 EF GE | FA GF GE E2 |
|: ef gf/e/ bg fg | Bg fg af df | 
   ef gf/e/ bg fe | fa gf ge e2 :|
